artwork/resources/intui/icons/shell/tool-windows/database-inspector_dark.svg

<svg width="16" height="16" viewBox="0 0 16 16" fill="none" xmlns="http://www.w3.org/2000/svg">
<g clip-path="url(#clip0_136_87)">
<circle cx="9" cy="10" r="2.5" stroke="#CED0D6"/>
<path d="M11 12L13 14" stroke="#CED0D6" stroke-linecap="round"/>
<path fill-rule="evenodd" clip-rule="evenodd" d="M2.01664 3.39246H2V12.5184H2.00263C2.03051 12.9621 2.2768 13.3344 2.59694 13.6237C2.9371 13.9312 3.40129 14.1852 3.93236 14.3882C4.99792 14.7956 6.43619 15.0371 8 15.0371C9.28669 15.0371 10.4884 14.8736 11.4674 14.5887L10.6455 13.7668C10.3907 13.8232 10.121 13.872 9.83875 13.9119C9.57323 13.9686 9.29796 13.9989 9.01579 14C8.68825 14.0242 8.34866 14.0371 8 14.0371C6.52624 14.0371 5.21452 13.8078 4.28947 13.4542C3.82523 13.2767 3.48396 13.0775 3.2675 12.8819C3.05102 12.6862 3 12.5341 3 12.4343V10.985C3.27236 11.1599 3.58833 11.3128 3.93236 11.4444C4.38173 11.6162 4.89739 11.7585 5.46079 11.8656C5.27936 11.5221 5.14647 11.149 5.07124 10.7555C4.78787 10.6831 4.52602 10.6008 4.28947 10.5103C3.82523 10.3328 3.48396 10.1337 3.2675 9.93804C3.05102 9.74236 3 9.59029 3 9.49048V8.04112C3.27236 8.21609 3.58833 8.369 3.93236 8.50053C4.3017 8.64174 4.71583 8.76301 5.16444 8.8612C5.26279 8.52945 5.40301 8.21569 5.57897 7.92606C5.09631 7.83088 4.6616 7.70874 4.28947 7.56647C3.82523 7.38898 3.48396 7.18985 3.2675 6.99419C3.05102 6.79851 3 6.64645 3 6.54663V5.09723C3.27236 5.27221 3.58833 5.42512 3.93236 5.55665C4.93809 5.94115 6.27584 6.17786 7.7378 6.20323C8.13458 6.07138 8.55895 6 9 6C9.28915 6 9.57114 6.03068 9.84288 6.08897C10.6804 5.97964 11.4389 5.79703 12.0676 5.55665C12.4117 5.42512 12.7276 5.27221 13 5.09723V6.54663C13 6.64645 12.949 6.79851 12.7325 6.99419C12.574 7.1375 12.3484 7.28268 12.0567 7.41984C12.2732 7.676 12.458 7.95974 12.6052 8.26503C12.7447 8.19486 12.8768 8.12025 13 8.04112V9V9.49048V10V10.985V11.8787L13.9427 12.8214C13.9719 12.7245 13.9908 12.6234 13.9974 12.5184H14V3.39246H13.9834C13.9213 3.00405 13.6924 2.67483 13.4031 2.41334C13.0629 2.10586 12.5987 1.85189 12.0676 1.64885C11.0021 1.24147 9.56381 1 8 1C6.43619 1 4.99792 1.24147 3.93236 1.64885C3.40129 1.85189 2.9371 2.10586 2.59694 2.41334C2.30765 2.67483 2.07865 3.00405 2.01664 3.39246ZM3.2675 3.15519C3.05102 3.35087 3 3.50293 3 3.60275C3 3.70256 3.05102 3.85463 3.2675 4.05031C3.48396 4.24597 3.82523 4.4451 4.28947 4.62258C5.21452 4.97625 6.52624 5.2055 8 5.2055C9.47376 5.2055 10.7855 4.97625 11.7105 4.62258C12.1748 4.4451 12.516 4.24597 12.7325 4.05031C12.949 3.85463 13 3.70256 13 3.60275C13 3.50293 12.949 3.35087 12.7325 3.15519C12.516 2.95953 12.1748 2.7604 11.7105 2.58291C10.7855 2.22925 9.47376 2 8 2C6.52624 2 5.21452 2.22925 4.28947 2.58291C3.82523 2.7604 3.48396 2.95953 3.2675 3.15519Z" fill="#CED0D6"/>
</g>
<defs>
<clipPath id="clip0_136_87">
<rect width="16" height="16" fill="white"/>
</clipPath>
</defs>
</svg>

<svg width="16" height="16" viewBox="0 0 16 16" fill="none" xmlns="http://www.w3.org/2000/svg"><g clip-path="url(#clip0_136_87)"><circle cx="9" cy="10" r="2.5" stroke="#CED0D6"/><path d="M11 12l2 2" stroke="#CED0D6" stroke-linecap="round"/><path fill-rule="evenodd" clip-rule="evenodd" d="M2.017 3.392H2v9.126h.003c.028.444.274.816.594 1.106.34.307.804.561 1.335.764 1.066.408 2.504.65 4.068.65 1.287 0 2.488-.164 3.467-.45l-.822-.821c-.254.056-.524.105-.806.145-.266.057-.541.087-.823.088-.328.024-.667.037-1.016.037-1.474 0-2.785-.23-3.71-.583-.465-.177-.806-.377-1.022-.572-.217-.196-.268-.348-.268-.448v-1.449c.272.175.588.328.932.46.45.171.965.313 1.529.42a3.973 3.973 0 0 1-.39-1.11 7.15 7.15 0 0 1-.782-.245c-.464-.177-.805-.376-1.021-.572C3.05 9.742 3 9.59 3 9.49V8.041c.272.175.588.328.932.46.37.14.784.262 1.232.36.099-.332.239-.645.415-.935a7.952 7.952 0 0 1-1.29-.36c-.464-.177-.805-.376-1.021-.572C3.05 6.8 3 6.646 3 6.547v-1.45c.272.175.588.328.932.46 1.006.384 2.344.62 3.806.646a3.996 3.996 0 0 1 2.105-.114c.837-.11 1.596-.292 2.225-.532.344-.132.66-.285.932-.46v1.45c0 .1-.051.252-.268.447a2.776 2.776 0 0 1-.675.426c.216.256.401.54.548.845.14-.07.272-.145.395-.224v3.838l.943.942c.029-.096.048-.198.054-.303H14V3.392h-.017c-.062-.388-.29-.717-.58-.979-.34-.307-.804-.561-1.335-.764C11.002 1.24 9.564 1 8 1c-1.564 0-3.002.241-4.068.649-.53.203-.995.457-1.335.764-.29.262-.518.591-.58.98zm1.25-.237c-.216.196-.267.348-.267.448 0 .1.051.252.268.447.216.196.557.395 1.021.573.926.353 2.237.582 3.711.582 1.474 0 2.786-.229 3.71-.582.465-.178.806-.377 1.022-.573.217-.195.268-.347.268-.447 0-.1-.051-.252-.268-.448-.216-.195-.557-.395-1.021-.572C10.785 2.229 9.473 2 8 2c-1.474 0-2.785.23-3.71.583-.465.177-.806.377-1.022.572z" fill="#CED0D6"/></g><defs><clipPath id="clip0_136_87"><path fill="#fff" d="M0 0h16v16H0z"/></clipPath></defs></svg>
